X:1
T:Beautiful for Situation Is Mount Zion
T:Beautiful for Situation Is Mount Zion
T:Harlan D. Sorrell
T:H. D. S.
T:PUBLIC DOMAIN
T:PUBLIC DOMAIN
C:Harlan D. Sorrell
Z:H. D. S.
Z:PUBLIC DOMAIN
%%score ( 1 2 ) ( 3 4 )
L:1/8
Q:1/4=100
M:4/4
K:Db
V:1 treble nm="Treble"
V:2 treble 
V:3 bass nm="Bass"
V:4 bass 
V:1
 [FA]2 [DF] [EG] [FA]3 [FA] | [GB] [FA] [FA] [FA] [FA] [Fd]2 [FA] | %2
w: 1.~O church of God, in|Christ a new cre- a- tion, Wrought|
w: 2.~O church of God, the|cit- y of the ho- ly, The|
w: 3.~O church of God, what|fold have we be- side thee? What|
w: 4.~O church of God, thou|art a “ho- ly na- tion,” A|
w: 5.~O church of God, the|place of God’s own dwell- ing— All|
 [FA] [DF] [DG] [DF] [DF] [CE]2 | [CE] | [CE]2 [DF]2 [EG] [CE] [DF] [EG] | %5
w: by His great sal- va- tion,|Thy|gold- en glo- ry now breaks|
w: dwell- ing of the low- ly,|What|bliss to dwell where we may|
w: man- made creed can hide thee?|Thy|light and glo- ry shall shine|
w: “chos- en gen- er- a- tion,”|Which|hast found mer- cy through God’s|
w: dark- ness here dis- pell- ing—|The|Lord of glo- ry walks and|
 [FA] [GB] [FA] [EG] [DF]4 | [FA]2 [DF] [EG] [FA]2 (([FA] [FA])) | [FA]2 [Gd] [Ac] [Bd]2 [GB]2 | %8
w: forth up- on our sight!|Sit- ting a- loft in the|top of the moun- tains,|
w: e’er her bless- ings share!|Sure- ly the “springs of the|Lord” are with- in her,|
w: forth for- ev- er- more!|“Come, all ye peo- ple,” her|sweet voice is call- ing,|
w: dear, be- lov- ed Son;|Out from all schi- sms and|class- es of peo- ple|
w: talks in ho- ly men;|He is their God and *|they are His peo- ple;|
 [FA]2 [FA] [FA] [FA] [Fd]2 [Fd] | [Ge]2 [Fd] [Ec] [Fd]4 || %10
w: Now we be- hold her— the|cit- y of light!|
w: Spark- ling with grac- es so|rich and so rare.|
w: “En- ter through Je- sus, for|He is the door.”|
w: Thou He hast pur- chased and|mold- ed in one.|
w: He has re- deemed them from|all of their sin.|
"^Refrain" [FA] [FA] [DF] [EG] [FA] [FA] [GB] [FA] | [FA]2 [FA]2 [FA] [Fd]2 [Fd] | %12
w: Beau- ti- ful for sit- u- a- tion|is Mount Zi- on, The|
w: ||
w: ||
w: ||
w: ||
 [Ac]2 [Ac] [Ad] [Ae]3 [Ae] | [Fd]2 [Fd] [Ge] [Af]4 | [FA]2 [DF] [EG] [FA]2 [FA] [FA] | %15
w: joy of the earth, the|moun- tain of love!|Up to her sum- mit all|
w: |||
w: |||
w: |||
w: |||
 [FA]2 [Fd] [Ge] [Af]3 [Af] | [Ge]2 [Ec] [Fd] [Ge]2 d c | d8 |] %18
w: na- tions now flow— All|souls who are born from a-|bove.|
w: |||
w: |||
w: |||
w: |||
V:2
 x8 | x8 | x7 | x | x8 | x8 | x8 | x8 | x8 | x8 || x8 | x8 | x8 | x8 | x8 | x8 | z4 z2 z2 | %17
 F2 G G F4 |] %18
V:3
 [D,D]2 [D,A,] [D,A,] [D,D]3 [D,D] | [D,D] [D,D] [D,D] [D,D] [D,D] [D,A,]2 [D,A,] | %2
w: ||
 [A,D] [D,A,] [D,B,] [D,A,] [A,,A,] [A,,A,]2 | [A,,A,] | %4
w: ||
 [A,,A,]2 [A,,A,]2 [A,,A,] [A,,A,] [B,,A,] [C,A,] | [D,D] [D,D] [D,D] [D,D] [D,A,]4 | %6
w: ||
 [D,D]2 [D,A,] [D,A,] [D,D]2 (([D,D] [D,D])) | [D,D]2 [E,D] [F,E] [G,D]2 [G,D]2 | %8
w: ||
 [D,D]2 [D,D] [D,D] [A,,D] [A,,D]2 [A,,D] | [A,,E]2 [A,,D] [A,,C] [D,D]4 || %10
w: ||
 [D,D] [D,D] [D,A,] [D,A,] [D,D] [D,D] [D,D] [D,D] | [D,D]2 [D,D]2 [D,D] [F,D]2 [F,D] | %12
w: ||
 [A,E]2 [A,E] [B,D] E3 [E,C] | [D,D]2 [F,D] [A,C] D4 | [D,D]2 [D,A,] [D,A,] [D,D]2 [D,D] [D,D] | %15
w: |||
 [D,D]2 [F,D] [A,C] D3 [B,D] | [A,E]2 [A,E] [A,D] [A,E]2 z2 | A,2 B, B, A,4 |] %18
w: ||born from a- bove.|
V:4
 x8 | x8 | x7 | x | x8 | x8 | x8 | x8 | x8 | x8 || x8 | x8 | z4 (A, G, F,) z | z4 D4 | x8 | %15
 z4 D3 z | z6 A, A, | D,8 |] %18

